Vexed/wwwroot/images/icons/marketing-icon.svg

<svg width="46" height="47" viewBox="0 0 46 47" fill="none" xmlns="http://www.w3.org/2000/svg">
	<g clip-path="url(#clip0_7_2447)">
		<path d="M14.3 36.3C15.8 39.4 17.8 42.2 20.5 44.5C16.4 43.8 12.7 41.8 9.80005 38.9C11.2 37.9 12.7 37.0333 14.3 36.3Z" fill="#343957"/>
		<path d="M7.29995 26.8H11.9C12 29.6 12.6 32.4 13.7 35C11.9666 35.7333 10.3666 36.6667 8.89995 37.8C6.69995 35.2 5.29995 32.3 4.69995 29.1C5.99995 29 7.09995 28 7.29995 26.8Z" fill="#343957"/>
		<path d="M15 34.4C14.0667 32 13.5 29.4667 13.3 26.8H23V32.9C20.3 33 17.6 33.5 15 34.4Z" fill="#343957"/>
		<path d="M15.6001 35.8C18.0001 34.9333 20.4668 34.4333 23.0001 34.3V44.6C19.8001 42.3 17.3001 39.2 15.6001 35.8Z" fill="#343957"/>
		<path d="M9.19995 12.6C12.1 9.19999 16.1 6.99999 20.5 6.29999C18.1 8.29999 16.1 10.8 14.7 13.6C14.4333 13.5333 14.2 13.5 14 13.5C13.1 13.5 12.4 13.8 11.8 14.4C10.8666 13.8667 9.99995 13.2667 9.19995 12.6Z" fill="#343957"/>
		<path d="M16.4 18C18.5334 18.6667 20.7334 19.0667 23 19.2V25.3H13.3C13.3 23.3 13.5334 21.3 14 19.3C15 19.3 15.9 18.8 16.4 18Z" fill="#343957"/>
		<path d="M11.1 15.7C11.0333 15.9 11 16.1333 11 16.4C11 17.5 11.7 18.5 12.6 19C12.0667 21.0666 11.8 23.1666 11.8 25.3H7.3C6.9 24.1 5.8 23.2 4.5 23.2C4.8 19.8 6.1 16.5 8.2 13.7C9.13333 14.4333 10.1 15.1 11.1 15.7Z" fill="#343957"/>
		<path d="M34.7 36.8C35.7666 37.3333 36.7999 37.9333 37.7999 38.6C34.8999 41.8 31 43.9 26.7 44.5C28.9 42.5667 30.6999 40.3667 32.0999 37.9C32.2333 37.9 32.3333 37.9 32.4 37.9C33.3 37.9 34.1 37.5 34.7 36.8Z" fill="#343957"/>
		<path d="M35.3 35.4C35.3 35.2667 35.3 35.1333 35.3 35C35.3 34.1 34.9 33.3 34.3 32.8C34.9 30.8 35.2334 28.8 35.3 26.8H43.1C42.8 30.7 41.3 34.4 38.8 37.5C37.6667 36.7 36.5 36 35.3 35.4Z" fill="#343957"/>
		<path d="M39.4 14C41.8 17.3 43.1 21.2 43.1 25.3H35.4C35.4 22.5 34.9 19.8 34 17.1C35.9333 16.3 37.7333 15.2667 39.4 14Z" fill="#343957"/>
		<path d="M16.9 16.6C16.9 16.5333 16.9 16.4666 16.9 16.4C16.9 15.6 16.5 14.8 16 14.3C17.6 11.1 20 8.29998 23 6.09998V17.7C20.8667 17.6333 18.8333 17.2666 16.9 16.6Z" fill="#343957"/>
		<path d="M24.5 6.29999C27.9 8.89999 30.6 12.3 32.2 16.3C29.7 17.2 27.1 17.7 24.5 17.7V6.29999Z" fill="#343957"/>
		<path d="M26.7 6.19995C31.3 6.89995 35.5 9.29995 38.5 12.8C36.9666 14 35.3 15 33.5 15.8C32.1 12.1 29.7 8.79995 26.7 6.19995Z" fill="#343957"/>
		<path d="M24.5 19.2C27.3 19.1 30 18.6 32.7 17.7C33.5 20.1 33.9 22.6999 33.9 25.2999H24.5V19.2Z" fill="#343957"/>
		<path d="M29.5 34.9C29.5 34.9 29.5 34.9333 29.5 35C29.5 36 30 36.8 30.7 37.4C29.1 40.1 27 42.5 24.5 44.5V34.3C26.1667 34.3667 27.8333 34.5667 29.5 34.9Z" fill="#343957"/>
		<path d="M24.5 32.8V26.8H33.9C33.7667 28.6 33.4667 30.3667 33 32.1C32.8 32.0333 32.6 32 32.4 32C31.3 32 30.4 32.6 29.9 33.5C28.1 33.1 26.3 32.8667 24.5 32.8Z" fill="#343957"/>
		<path d="M14.7 13.6C15.1667 13.7333 15.6 13.9667 16 14.3C16.5 14.8 16.9 15.6 16.9 16.4C16.9 16.4667 16.9 16.5333 16.9 16.6C16.8333 17.1333 16.6667 17.6 16.4 18C15.9 18.8 15 19.3 14 19.3C13.4667 19.3 13 19.2 12.6 19C11.7 18.5 11 17.5 11 16.4C11 16.1333 11.0333 15.9 11.1 15.7C11.2333 15.1667 11.4667 14.7333 11.8 14.4C12.4 13.8 13.1 13.5 14 13.5C14.2 13.5 14.4333 13.5333 14.7 13.6Z" fill="#9C77A4"/>
		<path d="M7.3 25.2999C7.36667 25.5666 7.4 25.8333 7.4 26.1C7.4 26.3666 7.36667 26.5999 7.3 26.7999C7.1 27.9999 6 29 4.7 29.1C4.63333 29.1 4.56667 29.1 4.5 29.1C2.9 29.1 1.5 27.8 1.5 26.1C1.5 24.5 2.8 23.2 4.5 23.2C5.8 23.2 6.9 24.0999 7.3 25.2999Z" fill="#76628B"/>
		<path d="M34.3 32.8C34.9 33.3 35.3 34.1 35.3 35C35.3 35.1333 35.3 35.2667 35.3 35.4C35.1667 35.9333 34.9667 36.4 34.7 36.8C34.1 37.5 33.3 37.9 32.4 37.9C32.3333 37.9 32.2333 37.9 32.1 37.9C31.5667 37.8333 31.1 37.6667 30.7 37.4C30 36.8 29.5 36 29.5 35C29.5 34.9333 29.5 34.9 29.5 34.9C29.5 34.3667 29.6333 33.9 29.9 33.5C30.4 32.6 31.3 32 32.4 32C32.6 32 32.8 32.0333 33 32.1C33.4667 32.1667 33.9 32.4 34.3 32.8Z" fill="#9C77A4"/>
	</g>
	<defs>
		<clipPath id="clip0_7_2447">
			<rect width="46" height="47" fill="white"/>
		</clipPath>
	</defs>
</svg>

<svg version="1.2" xmlns="http://www.w3.org/2000/svg" viewBox="0 0 46 47" width="46" height="47">
	<title>icons-ai</title>
	<style>
		.s0 { fill: #616e7d } 
		.s1 { fill: #aad4c8 } 
		.s2 { fill: #ffffff } 
		.s3 { fill: #82bfab } 
	</style>
	<g id="Bg">
	</g>
	<g id="Object">
		<g id="&lt;Group&gt;">
			<path id="&lt;Path&gt;" class="s0" d="m265.6 284.6l0.2-2.2h-5.8c-0.8 0-1.4-0.6-1.4-1.2v-6.9c0-0.7 0.6-1.3 1.4-1.3h14.5c0.8 0 1.4 0.6 1.4 1.3v6.9c0 0.6-0.6 1.2-1.4 1.2h-6.7z"/>
			<path id="&lt;Path&gt;" class="s1" d="m279.9 285.4h-2.7l0.1 1.3-1.3-1.3h-4.4c-0.5 0-0.9-0.4-0.9-0.8v-1.7h4.3c0.9 0 1.6-0.6 1.6-1.3v-2.5h3.3c0.5 0 0.9 0.4 0.9 0.8v4.7c0 0.4-0.4 0.8-0.9 0.8z"/>
			<path id="&lt;Path&gt;" class="s0" d="m260.4 288.9c1.9 0 3.4 1.5 3.4 3.4 0 1.9-1.5 3.4-3.4 3.4-1.9 0-3.4-1.5-3.4-3.4 0-1.9 1.5-3.4 3.4-3.4z"/>
			<path id="&lt;Compound Path&gt;" fill-rule="evenodd" class="s0" d="m280.8 296c1.8 0 3.2 1.5 3.2 3.2v1.6h-6.8c0-1.7-1-3.2-2.3-4.1 0.5-0.4 1.2-0.7 1.9-0.7zm-0.1 1.2c0.1-0.2-0.6-0.6-0.6-0.6l-1.2 3.7-1.3-3.7c0 0-0.6 0.4-0.6 0.6 0.1 0 1 0.9 1 0.9l-0.6 0.6 1.5 1.6 1.5-1.6-0.7-0.6c0 0 1-0.9 1-0.9z"/>
			<path id="&lt;Compound Path&gt;" fill-rule="evenodd" class="s0" d="m258.5 296h3.9c0.7 0 1.4 0.3 2 0.7-1.4 0.9-2.3 2.4-2.4 4.1h-6.8v-1.6c0-1.7 1.5-3.2 3.3-3.2zm0.1 0.4q-0.1 0-0.2 0l0.8 3.8h0.4l0.4-2.5-0.4-0.8h1.6l-0.4 0.8 0.4 2.5h0.5l0.7-3.8q-0.1 0-0.2 0z"/>
			<path id="&lt;Path&gt;" class="s2" d="m260.8 297.7l0.4-0.8h-1.6l0.4 0.8-0.4 2.5h-0.4l-0.8-3.8q0.1 0 0.2 0h3.6q0.1 0 0.2 0l-0.7 3.8h-0.5l-0.4-2.5z"/>
			<path id="&lt;Path&gt;" class="s0" d="m269.6 286.9c2.6 0 4.6 2.1 4.6 4.6 0 2.6-2 4.6-4.6 4.6-2.5 0-4.6-2-4.6-4.6 0-2.5 2.1-4.6 4.6-4.6z"/>
			<path id="&lt;Path&gt;" class="s0" d="m269.1 298.7l-0.5-0.9z"/>
			<path id="&lt;Compound Path&gt;" fill-rule="evenodd" class="s0" d="m272.3 296.6c2.4 0 4.3 1.9 4.3 4.3v2.1h-14v-2.1c0-2.4 2-4.3 4.3-4.3zm0.1 0.4q-0.2 0-0.3 0h-4.8q-0.2 0-0.3 0l1 5.3h3.4z"/>
			<path id="&lt;Path&gt;" class="s2" d="m270.1 298.7l0.6-0.9h-2.1l0.5 0.9-0.6 3.6h-0.6l-1-5.3q0.2 0 0.3 0h4.8q0.2 0 0.3 0l-1 5.3h-0.6l-0.5-3.6z"/>
			<path id="&lt;Path&gt;" class="s1" d="m269.1 298.7l-0.5-0.9h2.1l-0.6 0.9h0.1l0.5 3.6h-2.2z"/>
			<path id="&lt;Path&gt;" class="s2" d="m279.7 298.1l0.6 0.6-1.5 1.6 1.3-3.7c0 0 0.6 0.4 0.6 0.6-0.1 0-1 0.9-1 0.9z"/>
			<path id="&lt;Path&gt;" class="s2" d="m277.3 298.7l0.7-0.6c0 0-1-0.9-1-0.9-0.1-0.2 0.6-0.6 0.6-0.6l1.2 3.7z"/>
			<path id="&lt;Path&gt;" class="s0" d="m282.1 292.3v0.1 1.8c0 0.7 0.3 1.2 0.8 1.4v0.1h-4.1q-0.1 0-0.2 0c-1.9 0-3.5-1.6-3.4-3.6 0.1-1.7 1.5-3.1 3.2-3.2 2-0.2 3.7 1.4 3.7 3.4z"/>
			<path id="&lt;Compound Path&gt;" fill-rule="evenodd" class="s0" d="m251.8 295.4h3.1c0.5 0 1.1 0.2 1.5 0.5-1.1 0.7-1.8 1.8-1.8 3.2h-5.2v-1.2c0-1.4 1.1-2.5 2.4-2.5zm0.1 0.9c0.1 0 0.8 0.7 0.8 0.7l-0.5 0.5 1.1 1.2 1.2-1.2-0.5-0.5c0 0 0.7-0.7 0.8-0.7 0-0.1-0.5-0.5-0.5-0.5l-1 2.9-0.9-2.9c0 0-0.5 0.4-0.5 0.5z"/>
			<path id="&lt;Path&gt;" class="s2" d="m252.2 297.5l0.5-0.5c0 0-0.7-0.7-0.8-0.7 0-0.1 0.5-0.5 0.5-0.5l0.9 2.9z"/>
			<path id="&lt;Path&gt;" class="s2" d="m254 297l0.5 0.5-1.2 1.2 1-2.9c0 0 0.5 0.4 0.5 0.5-0.1 0-0.8 0.7-0.8 0.7z"/>
			<path id="&lt;Path&gt;" class="s0" d="m250.6 292.6c0-1.5 1.3-2.7 2.8-2.6 1.3 0 2.3 1.1 2.4 2.4 0.1 1.5-1.1 2.8-2.6 2.8h-0.1-3.1l-0.1-0.1c0.4-0.2 0.7-0.6 0.7-1.1z"/>
			<path id="&lt;Compound Path&gt;" fill-rule="evenodd" class="s0" d="m287.5 295.4c1.3 0 2.4 1.1 2.4 2.5v1.2h-5.2c0-1.4-0.7-2.5-1.7-3.2 0.4-0.3 0.9-0.5 1.5-0.5zm-0.1 0.3q0 0-0.1 0h-2.7q0 0-0.1 0l0.5 2.8h0.4l0.3-1.9-0.3-0.5h1.1l-0.3 0.5h0.1l0.2 1.9h0.4z"/>
			<path id="&lt;Path&gt;" class="s0" d="m286 289.9c1.4 0 2.6 1.2 2.6 2.6 0 1.5-1.2 2.6-2.6 2.6-1.5 0-2.6-1.1-2.6-2.6 0-1.4 1.1-2.6 2.6-2.6z"/>
			<path id="&lt;Path&gt;" class="s2" d="m286.3 296.6l0.2-0.5h-1.1l0.3 0.5-0.3 1.9h-0.4l-0.5-2.8q0.1 0 0.2 0h2.6q0.1 0 0.2 0l-0.6 2.8h-0.3l-0.3-1.9z"/>
		</g>
		<g id="&lt;Group&gt;">
			<path id="&lt;Path&gt;" class="s0" d="m-274.1 282.8c2.6 0 4.7 2.1 4.7 4.7 0 2.6-2.1 4.7-4.7 4.7-2.6 0-4.8-2.1-4.8-4.7 0-2.6 2.2-4.7 4.8-4.7z"/>
			<path id="&lt;Path&gt;" class="s2" d="m-273.6 294.9l0.5-1h-2.1l0.5 1-0.5 3.6h-0.7l-1-5.4q0.1 0 0.3 0h4.9q0.2 0 0.3 0l-1 5.4h-0.6l-0.6-3.6z"/>
			<path id="&lt;Path&gt;" class="s0" d="m-299.5 282.8c2.6 0 4.7 2.1 4.7 4.7 0 2.6-2.1 4.7-4.7 4.7-2.6 0-4.7-2.1-4.7-4.7 0-2.6 2.1-4.7 4.7-4.7z"/>
			<path id="&lt;Compound Path&gt;" fill-rule="evenodd" class="s0" d="m-296.6 299.2v-2.8c-0.4 0.8-0.7 1.8-0.7 2.8h-9.4v-2.1c0-2.5 2-4.5 4.4-4.5h5.5q0.7 0.1 1.3 0.3c1.1-1.6 2.9-2.6 4.9-2.6h7.5c2 0 3.8 1 4.9 2.6q0.6-0.2 1.3-0.3h5.5c2.4 0 4.4 2 4.4 4.5v2.1h-9.4c0-1-0.3-2-0.7-2.9v2.9zm19.7-6.1l1 5.4h0.6l0.6-3.6-0.5-1h2.1l-0.5 1 0.5 3.6h0.7l1-5.4q-0.1 0-0.3 0h-4.9q-0.2 0-0.3 0zm-13.7-2.2l1.4 7.3h4.7l1.4-7.3q-0.2 0-0.4 0h-6.7q-0.2 0-0.4 0zm-6.2 2.2q-0.1 0-0.3 0h-4.9q-0.2 0-0.3 0l1 5.4h0.6l0.6-3.6-0.5-1h2.1l-0.5 1 0.5 3.6h0.7z"/>
			<path id="&lt;Path&gt;" class="s2" d="m-299 294.9l0.5-1h-2.1l0.5 1-0.5 3.6h-0.7l-1-5.4q0.1 0 0.3 0h4.9q0.2 0 0.3 0l-1 5.4h-0.6l-0.6-3.6z"/>
			<path id="&lt;Path&gt;" class="s0" d="m-286.8 276.8c3.5 0 6.4 2.9 6.4 6.4 0 3.6-2.9 6.5-6.4 6.5-3.6 0-6.5-2.9-6.5-6.5 0-3.5 2.9-6.4 6.5-6.4z"/>
			<path id="&lt;Path&gt;" class="s2" d="m-286.1 293.3l0.7-1.3h-2.9l0.7 1.3-0.7 4.9h-0.9l-1.4-7.3q0.2 0 0.4 0h6.7q0.2 0 0.4 0l-1.4 7.3h-0.8l-0.8-4.9z"/>
			<path id="&lt;Path&gt;" class="s1" d="m-287.6 293.3l-0.7-1.3h2.9l-0.7 1.3 0.8 4.9h-3z"/>
		</g>
		<g id="&lt;Group&gt;">
			<path id="&lt;Path&gt;" class="s0" d="m-473.2 428.1v-14.9q-0.6-0.3-0.8-0.8h-7.7l-0.2-0.5q-0.1-0.2-0.3-0.2-0.2 0-0.3 0.2l-0.2 0.5h-0.4c-0.5 0-0.9-0.4-0.9-0.9 0-0.5 0.4-0.8 0.9-0.8h9.1q0.2-0.6 0.8-0.9v-0.8c0-0.5 0.4-0.8 0.9-0.8 0.4 0 0.8 0.3 0.8 0.8v0.8q0.6 0.3 0.8 0.9h9.1c0.5 0 0.9 0.3 0.9 0.8 0 0.5-0.4 0.9-0.9 0.9h-0.4l-0.2-0.5q-0.1-0.2-0.3-0.2-0.2 0-0.3 0.2l-0.2 0.5h-7.7q-0.2 0.5-0.8 0.8v14.9z"/>
			<path id="&lt;Path&gt;" class="s3" d="m-462 412.4l4.3 8.5q0.1 0 0.1 0.1h-0.7l-4.2-8.3-4.2 8.3h-0.7q0-0.1 0.1-0.1l4.3-8.5 0.2-0.5q0.1-0.2 0.3-0.2 0.2 0 0.3 0.2z"/>
			<path id="&lt;Path&gt;" class="s1" d="m-458.3 421h0.7 0.3c0 2.9-2.3 5.2-5.2 5.2-2.9 0-5.2-2.3-5.2-5.2h0.3 0.7z"/>
			<path id="&lt;Path&gt;" class="s3" d="m-481.7 412.4l4.3 8.5q0.1 0 0.1 0.1h-0.7l-4.2-8.3-4.2 8.3h-0.6q-0.1-0.1 0-0.1l4.3-8.5 0.2-0.5q0.1-0.2 0.3-0.2 0.2 0 0.3 0.2z"/>
			<path id="&lt;Path&gt;" class="s1" d="m-478 421h0.7 0.3c0 2.9-2.3 5.2-5.2 5.2-2.9 0-5.2-2.3-5.2-5.2h0.4 0.6z"/>
			<path id="&lt;Path&gt;" class="s0" d="m-467.1 428.1v1.2h2.8v1.2h-16.1v-1.2h2.7v-1.2h4.5 1.7z"/>
		</g>
		<g id="&lt;Group&gt;">
			<path id="&lt;Path&gt;" class="s1" d="m-602.6 424.6h0.2c1.5 0.8 3.1 1.4 4.9 1.5l-2.3 2.5-3-4z"/>
			<path id="&lt;Path&gt;" class="s1" d="m-590.3 424.6h0.8 0.2l-2.9 4-2.4-2.5c1.5-0.3 3-0.8 4.3-1.5z"/>
			<path id="&lt;Compound Path&gt;" fill-rule="evenodd" class="s0" d="m-590.3 424.6h0.7q0.1 0 0.1 0h-0.8c-1.3 0.7-2.8 1.2-4.3 1.5l2.4 2.5 2.9-4c5.7 0.2 10.2 4.7 10.2 10.2v5h-33.8v-5c0-5.5 4.5-10 10.1-10.2l3 4 2.3-2.5c-1.8-0.1-3.4-0.7-4.9-1.5h-0.2q0.1 0 0.2 0-1.8-1-3.1-2.6c-0.7 2.4-2.8 4.3-5.4 4.4-2.1 0.1-4-0.9-5.2-2.5 2.4-0.3 4.3-2 4.9-4.1q0.1-0.3 0.2-0.5c0.3-0.8 1-1.5 1.8-1.8-1-0.4-1.7-1.4-1.7-2.6v-0.9c0-1.3 1-2.4 2.3-2.7q-0.1-0.6-0.1-1.2v-0.2q0-0.4 0-0.9c0.2-1.9 0.9-3.7 1.9-5.2q0.8-1.2 1.9-2.1c1.5-1.3 3.2-2.2 5.2-2.5l0.2 0.1-0.1-0.2h0.2q0.6 0 1.4-0.1h0.1q0.4-0.1 0.9-0.1v0.1h0.1v-0.1c2.3-0.1 5.3 0.2 8.2 2.2 2.8 2 4.6 5.3 4.6 9q0 0.1 0 0.2 0 0.5 0 1c1.3 0.2 2.4 1.3 2.4 2.7v0.9c0 1.1-0.7 2-1.6 2.5 1.1 0.2 1.9 0.9 2.3 1.9q0.1 0.2 0.1 0.5c0.7 2.1 2.6 3.8 4.9 4.1-1.1 1.6-3 2.6-5.1 2.5-2.9-0.2-5.1-2.3-5.6-5-0.9 1.3-2.2 2.4-3.6 3.2zm5.9-9.9q0 0.7-0.1 1.4c0.6-0.1 1-0.6 1-1.2v-0.9c0-0.5-0.4-1-1-1.1q0 0.3 0 0.7 0.1 0.5 0.1 1.1zm-23.9 0q0-0.6 0.1-1.3 0-0.2-0.1-0.5c-0.5 0.2-0.9 0.6-0.9 1.1v0.9c0 0.6 0.4 1.1 1 1.2q-0.1-0.7-0.1-1.4zm21.8 2.8q0.2-0.8 0.3-1.7 0.1-0.5 0.1-1.1 0-0.7-0.1-1.4-0.1-0.4-0.2-0.7c-1.4-1-3.2-2.6-3.9-3.8 0 0-11.3 2.7-15.4 3q-0.2 0-0.4 0-0.2 0.7-0.3 1.5-0.1 0.7-0.1 1.4 0 0.6 0 1.1 0.1 0.9 0.4 1.7c1.2 4.1 5.1 7 9.8 7 4.6 0 8.5-2.9 9.8-7z"/>
		</g>
		<g id="&lt;Group&gt;">
			<path id="&lt;Compound Path&gt;" fill-rule="evenodd" class="s0" d="m-391.4-187.5c0.6 0 1.1 0.5 1.1 1.1v24.7c0 0.6-0.5 1.1-1.1 1.1h-38.2c-0.6 0-1.1-0.5-1.1-1.1v-24.7c0-0.6 0.5-1.1 1.1-1.1zm-1.4 2.4h-35.3v20.4h35.3z"/>
			<path id="&lt;Path&gt;" class="s0" d="m-405.1-159.9l1.4 2.5c0.3 0.5 0.4 1.7 0.1 1.7h-13.8c-0.3 0-0.3-1.2 0-1.7l1.5-2.5q0.1-0.2 0.2-0.2h10.4q0.1 0 0.2 0.2z"/>
			<path id="&lt;Compound Path&gt;" fill-rule="evenodd" class="s2" d="m-428.2-185.1h35.4v20.4h-35.4zm17.4 12.7h-7.7v0.9h7.7zm8.8 5.2h-8.3v0.7h8.3zm7.6-1.2h-15.9v0.7h15.9zm0-1.2h-15.9v0.7h15.9zm0-1.2h-15.9v0.7h15.9zm-8.2-0.8v-0.9h-7.7v0.9zm8.2-0.9h-7.7v0.9h7.7zm-32.3-0.7h32.3v-10.4h-32.3zm0 1.6h7.7v-0.9h-7.7zm0 5.4h15.9v-4.5h-15.9z"/>
			<path id="&lt;Path&gt;" class="s1" d="m-426.7-183.4h32.3v10.3h-32.3z"/>
			<path id="&lt;Path&gt;" class="s3" d="m-426.7-172.3h7.8v0.9h-7.8z"/>
			<path id="&lt;Path&gt;" class="s3" d="m-426.7-170.6h15.9v4.5h-15.9z"/>
			<path id="&lt;Path&gt;" class="s3" d="m-418.5-171.4v-0.9h7.7v0.9z"/>
			<path id="&lt;Path&gt;" class="s3" d="m-410.3-171.4v-0.9h7.7v0.9z"/>
			<path id="&lt;Path&gt;" class="s1" d="m-410.3-170v-0.6h15.9v0.6z"/>
			<path id="&lt;Path&gt;" class="s1" d="m-410.3-168.8v-0.7h15.9v0.7z"/>
			<path id="&lt;Path&gt;" class="s1" d="m-410.3-167.6v-0.7h15.9v0.7z"/>
			<path id="&lt;Path&gt;" class="s1" d="m-410.3-166.5v-0.7h8.3v0.7z"/>
			<path id="&lt;Path&gt;" class="s3" d="m-402.1-171.4v-0.9h7.7v0.9z"/>
		</g>
		<g id="&lt;Group&gt;">
			<path id="&lt;Compound Path&gt;" fill-rule="evenodd" class="s0" d="m-456-185.6c0.5 0 0.9 0.5 0.9 1v20.1c0 0.5-0.4 0.9-0.9 0.9h-32.7c-0.5 0-0.9-0.4-0.9-0.9v-20.1c0-0.5 0.4-1 0.9-1zm-1.3 2.1h-30v17.8h30z"/>
			<path id="&lt;Path&gt;" class="s0" d="m-454.8-162.9l3.4 3.2c0.7 0.7 0.3 2-0.6 2h-40.7c-0.9 0-1.3-1.3-0.6-2l3.4-3.2q0.3-0.2 0.6-0.2h33.9q0.3 0 0.6 0.2z"/>
			<path id="&lt;Compound Path&gt;" fill-rule="evenodd" class="s2" d="m-487.4-165.7v-17.8h30.1v17.8zm14.7-7.2h-6.5v0.8h6.5zm7.4 4.6h-7v0.7h7zm6.4-1.1h-13.4v0.6h13.4zm0-1h-13.4v0.6h13.4zm0-1.1h-13.4v0.6h13.4zm-6.9-0.6v-0.9h-6.5v0.9zm6.9-0.9h-6.5v0.9h6.5zm-27.2-0.8h27.2v-8.3h-27.2zm0 1.5h6.5v-0.8h-6.5zm0 4.9h13.4v-4.1h-13.4z"/>
			<path id="&lt;Path&gt;" class="s1" d="m-486.1-173.6v-8.4h27.3v8.4z"/>
			<path id="&lt;Path&gt;" class="s3" d="m-486.1-172.1v-0.8h6.5v0.8z"/>
			<path id="&lt;Path&gt;" class="s3" d="m-486.1-167.3v-4.1h13.4v4.1z"/>
			<path id="&lt;Path&gt;" class="s3" d="m-479.2-172.1v-0.8h6.5v0.8z"/>
			<path id="&lt;Path&gt;" class="s3" d="m-472.3-172.1v-0.8h6.5v0.8z"/>
			<path id="&lt;Path&gt;" class="s1" d="m-472.3-170.8v-0.6h13.5v0.6z"/>
			<path id="&lt;Path&gt;" class="s1" d="m-472.3-169.8v-0.6h13.5v0.6z"/>
			<path id="&lt;Path&gt;" class="s1" d="m-472.3-168.7v-0.6h13.5v0.6z"/>
			<path id="&lt;Path&gt;" class="s1" d="m-472.3-167.6v-0.7h7v0.7z"/>
			<path id="&lt;Path&gt;" class="s3" d="m-465.3-172.1v-0.8h6.5v0.8z"/>
		</g>
		<g id="&lt;Group&gt;">
			<path id="&lt;Path&gt;" class="s0" d="m14.3 36.3c1.5 3.1 3.5 5.9 6.2 8.2-4.1-0.7-7.8-2.7-10.7-5.6q2.1-1.5 4.5-2.6z"/>
			<path id="&lt;Path&gt;" class="s0" d="m7.3 26.8h4.6c0.1 2.8 0.7 5.6 1.8 8.2q-2.6 1.1-4.8 2.8c-2.2-2.6-3.6-5.5-4.2-8.7 1.3-0.1 2.4-1.1 2.6-2.3z"/>
			<path id="&lt;Path&gt;" class="s0" d="m15 34.4q-1.4-3.6-1.7-7.6h9.7v6.1c-2.7 0.1-5.4 0.6-8 1.5z"/>
			<path id="&lt;Path&gt;" class="s0" d="m15.6 35.8q3.6-1.3 7.4-1.5v10.3c-3.2-2.3-5.7-5.4-7.4-8.8z"/>
			<path id="&lt;Path&gt;" class="s0" d="m9.2 12.6c2.9-3.4 6.9-5.6 11.3-6.3-2.4 2-4.4 4.5-5.8 7.3q-0.4-0.1-0.7-0.1c-0.9 0-1.6 0.3-2.2 0.9q-1.4-0.8-2.6-1.8z"/>
			<path id="&lt;Path&gt;" class="s0" d="m16.4 18q3.2 1 6.6 1.2v6.1h-9.7q0-3 0.7-6c1 0 1.9-0.5 2.4-1.3z"/>
			<path id="&lt;Path&gt;" class="s0" d="m11.1 15.7q-0.1 0.3-0.1 0.7c0 1.1 0.7 2.1 1.6 2.6q-0.8 3.1-0.8 6.3h-4.5c-0.4-1.2-1.5-2.1-2.8-2.1q0 0 0 0c0.3-3.4 1.6-6.7 3.7-9.5q1.4 1.1 2.9 2z"/>
			<path id="&lt;Path&gt;" class="s0" d="m34.7 36.8q1.6 0.8 3.1 1.8c-2.9 3.2-6.8 5.3-11.1 5.9q3.3-2.9 5.4-6.6 0.2 0 0.3 0c0.9 0 1.7-0.4 2.3-1.1z"/>
			<path id="&lt;Path&gt;" class="s0" d="m35.3 35.4q0-0.2 0-0.4c0-0.9-0.4-1.7-1-2.2q0.9-3 1-6h7.8c-0.3 3.9-1.8 7.6-4.3 10.7q-1.7-1.2-3.5-2.1z"/>
			<path id="&lt;Path&gt;" class="s0" d="m39.4 14c2.4 3.3 3.7 7.2 3.7 11.3h-7.7c0-2.8-0.5-5.5-1.4-8.2q2.9-1.2 5.4-3.1z"/>
			<path id="&lt;Path&gt;" class="s0" d="m16.9 16.6q0-0.1 0-0.2c0-0.8-0.4-1.6-0.9-2.1 1.6-3.2 4-6 7-8.2v11.6q-3.2-0.1-6.1-1.1z"/>
			<path id="&lt;Path&gt;" class="s0" d="m24.5 6.3c3.4 2.6 6.1 6 7.7 10-2.5 0.9-5.1 1.4-7.7 1.4z"/>
			<path id="&lt;Path&gt;" class="s0" d="m26.7 6.2c4.6 0.7 8.8 3.1 11.8 6.6q-2.3 1.8-5 3c-1.4-3.7-3.8-7-6.8-9.6z"/>
			<path id="&lt;Path&gt;" class="s0" d="m24.5 19.2c2.8-0.1 5.5-0.6 8.2-1.5 0.8 2.4 1.2 5 1.2 7.6h-9.4z"/>
			<path id="&lt;Path&gt;" class="s0" d="m29.5 34.9q0 0 0 0.1c0 1 0.5 1.8 1.2 2.4-1.6 2.7-3.7 5.1-6.2 7.1v-10.2q2.5 0.1 5 0.6z"/>
			<path id="&lt;Path&gt;" class="s0" d="m24.5 32.8v-6h9.4q-0.2 2.7-0.9 5.3-0.3-0.1-0.6-0.1c-1.1 0-2 0.6-2.5 1.5q-2.7-0.6-5.4-0.7z"/>
			<path id="&lt;Path&gt;" class="s1" d="m14.7 13.6q0.7 0.2 1.3 0.7c0.5 0.5 0.9 1.3 0.9 2.1q0 0.1 0 0.2-0.1 0.8-0.5 1.4c-0.5 0.8-1.4 1.3-2.4 1.3q0 0 0 0-0.8 0-1.4-0.3c-0.9-0.5-1.6-1.5-1.6-2.6q0-0.4 0.1-0.7 0.2-0.8 0.7-1.3c0.6-0.6 1.3-0.9 2.2-0.9q0.3 0 0.7 0.1z"/>
			<path id="&lt;Path&gt;" class="s3" d="m7.3 25.3q0.1 0.4 0.1 0.8 0 0.4-0.1 0.7c-0.2 1.2-1.3 2.2-2.6 2.3q-0.1 0-0.2 0c-1.6 0-3-1.3-3-3 0-1.6 1.3-2.9 3-2.9q0 0 0 0c1.3 0 2.4 0.9 2.8 2.1z"/>
			<path id="&lt;Path&gt;" class="s1" d="m34.3 32.8c0.6 0.5 1 1.3 1 2.2q0 0.2 0 0.4-0.2 0.8-0.6 1.4c-0.6 0.7-1.4 1.1-2.3 1.1q-0.1 0-0.3 0-0.8-0.1-1.4-0.5c-0.7-0.6-1.2-1.4-1.2-2.4q0-0.1 0-0.1 0-0.8 0.4-1.4c0.5-0.9 1.4-1.5 2.5-1.5q0.3 0 0.6 0.1 0.7 0.1 1.3 0.7z"/>
		</g>
	</g>
</svg>
